X:1
T:June Apple
L:1/8
M:4/4
I:linebreak $
K:D
V:1 treble nm="Voice" snm="Voice"
V:1
 [Fe]2 g2 [Fe]4 | aged cdef | gfef gfef | gfga g2 [Fe]2 |$ ageg ageg | aged cBAF | GFGA BAGF |1 %7
 E A2 B A2 [Fe]2 :|2 E A2 B A2 ed |:$ c2 cB A2 AB | cBcd e2 E2 | GFGA BABc | dcde f2 ed | %13
 c2 cB A2 AB |$ cBcd e2 E2 | GFGA BAGF |1 E A2 B A2 ed :|2 E A2 B A4 |] %18
